usr/share/icons/big-icons/symbolic/actions/debug-run-cursor.svg

<svg xmlns="http://www.w3.org/2000/svg" viewBox="0 0 16 16">
<defs id="defs3051">
<style id="current-color-scheme" type="text/css">
.ColorScheme-Text{color:#fcfcfc}
</style>
</defs>
<path d="M9 2v1h2v10H9v1h5v-1h-2V3h2V2zM5 5v2H2v2h3v2l3-3z" class="ColorScheme-Text" style="fill:currentColor;fill-opacity:1;stroke:none"/>
</svg>

<svg xmlns="http://www.w3.org/2000/svg" viewBox="0 0 16 16">
  <defs id="defs3051">
    <style type="text/css" id="current-color-scheme">
      .ColorScheme-Text {
        color:#eff0f1;
      }
      </style>
  </defs>
 <path style="fill:currentColor;fill-opacity:1;stroke:none" 
       d="M 9 2 L 9 3 L 11 3 L 11 13 L 9 13 L 9 14 L 14 14 L 14 13 L 12 13 L 12 3 L 14 3 L 14 2 L 9 2 z M 5 5 L 5 7 L 2 7 L 2 9 L 5 9 L 5 11 L 8 8 L 5 5 z "
     class="ColorScheme-Text"
     />
</svg>
